X:1
T:James Gibb editions
T:#
%%score 1 2 3 4
L:1/8
Q:1/4=90
M:4/4
K:C
V:1 treble nm="S" snm="S"
V:2 treble nm="A" snm="A"
V:3 treble-8 nm="T" snm="T"
V:4 bass nm="B" snm="B"
V:1
"^Go not too near a House of Rose""^Emily Dickinson\n(1831-1886)"!p! B4 B2 B2 | d6 B2 | B2 A2 B4 | %3
w: Go not too|near a|house of rose|
 B4 B2 B2 | d6"^James Gibb\n(1944- )" d2 | d2 c2 _B4 | d2!<(! c4 _B2 | A4 d4!<)! | %8
w: Go not too|near a|house of rose|The de- pre-|da- tion|
!>(! f2 e2 d4!>)! | z8 | z8 |!mp! z2 A2 A2 A2 | A4 d4 |!>(! f2 e2 d4!>)! | c2 !>!f4 d2 | %15
w: of a breeze|||Or in- un-|da- tion|of a dew|A- larms, a-|
 !>!g4 f2 e2- | e2 e2 d4- | d6!p! z2 | c2 c4 c2 | _e4 c2 c2- | c2 _B2 c4 |!mp! c4 c2 c2 | %22
w: larms its walls|* a- way;||Nor try to|tie the but\-|* ter- fly,|Nor climb the|
!<(! !courtesy!=e6 e2!<)! | e2 d2 B4 |!>(! !>!e2 d4 B2!>)! | z8 ||[M:5/4] z10 ||[M:3/4] z6 | %28
w: bars of|ec- sta- sy,|ec- sta- sy,||||
!mf! c2 c2 c2 |[M:5/4] _e2 c2 c4 _B2 ||[M:3/4] G4 c2 | f4 d2 | g6 |!>(! f2 _e2 c2 || %34
w: In in- se-|cu- ri- ty to|lie, is|Joy's, is|Joy's|in- sur- ing|
[M:4/4] _e3 d!>)!!p! !fermata!d4 |] %35
w: qua- li\- ty.|
V:2
 z8 | z8 | z8 |!p! G4 F2 _E2 |!<(! D4 G4!<)! |!>(! _B2 A2 G4!>)! | ^F2!<(! F4 F2 | A6 A2!<)! | %8
w: |||The de- pre-|da- tion|of a breeze|The de- pre-|da- tion|
!>(! A2 G2 F4!>)! | z8 |!mp! z2 A2 A2 A2 | A4 D4 | F2 E2 D4 |!>(! A2 G2 ^F4!>)! | z2!mp! C2 !>!F4 | %15
w: of a breeze||Or in- un-|da- tion|of a dew,|of a dew|A- larms,|
 D2 !>!G4 E2 | A2 G2 F2 E2 | ^F6 z2 | z8 | z8 | z8 |!mp! A4 G2 F2 |!<(! E4 A4!<)! | c2 B2 A4 | %24
w: a- larms, a-|larms its walls a-|way;||||Nor climb the|bars of|ec- sta- sy,|
!>(! !>!^G2 G4 G2!>)! | z8 ||[M:5/4] z10 ||[M:3/4] z6 |!mf! c2 _B2 _A2 |[M:5/4] G4 F2 _E2 D2 || %30
w: ec- sta- sy,||||In in- se-|cu- ri- ty to|
[M:3/4] C4 z2 | C2 F4 | D2 G4 |!>(! A2 G2 A2 ||[M:4/4] A3 B!>)!!p! B4 |] %35
w: lie,|Is Joy's,|is Joy's|in- sur- ing|qua- li\- ty.|
V:3
 z8 |!p! B4 B2 B2 | d6 B2 | B2 A2 B4 | B4 B2 B2 | d6 d2 | B2 c2 _B4 |!>(! A4 G2 F2- | %8
w: |Go not too|near a|house of rose|The de- pre-|da- tion|of a breeze,|of a breeze|
 F2!>)! z2 z4 |!mp! z2 A2 A2 A2 | A4 d4 | f2 e2 d4 | A4 G4 |!>(! A8!>)! | z4!mp! F2 !>!A2- | %15
w: |Or in- un-|da- tion|of a dew,|of a|dew|A- larms,|
 A2 _B2 !>!G4 | F2 F4 G2 | A6 z2 | z8 |!p! c2 c4 c2 | _e6 c2 | c2 _B2 c4 |!mp!!<(! c4 c2 c2!<)! | %23
w: * a- larms|its walls a-|way;||Nor try to|tie the|but- ter- fly,|Nor climb the|
 !courtesy!=e6 e2 |!>(! !>!B2 d4 e2!>)! |!p! z2 B2 B2 B2 ||[M:5/4] d4 B2 B2 A2 || %27
w: bars of|ec- sta- sy,|In in- sec-|ur- i- ty to|
[M:3/4]!<(! B6!<)! |!mf! c2 c2 c2 |[M:5/4][K:treble-8] d2 c2 _B4 c2 ||[M:3/4] d4 z2 | z2 F2 A2- | %32
w: lie,|in in- se-|cu- ri- ty to|lie,|Is Joy's,|
 A2 _B2 G2 |!>(! c2 c2 _B2 ||[M:4/4] A2 ^F2!>)!!p! D4 |] %35
w: * is Joy's|in- sur- ing|qua- li\- ty.|
V:4
!pp! G,8 | F,8 | E,8 | D,8 | G,8 | ^F,8 | _E,8 | D,8 |!mp! z2 A,,2 A,,2 A,,2 | A,,4 D,4 | %10
w: Go|not|too|near|a|house|of|rose|Or in- un-|da- tion|
 F,2 E,2 D,4 | F,2 F,4 F,2 | D,2 C,2 _B,,2 A,,2 |!>(! G,,2 A,,2 D,4!>)! | z4!mp! z2 F,2 | %15
w: of a dew,|or in- un-|da- tion of a|dew, a dew|A-|
 D,6 _B,,2 | A,,4 A,,4 | D,6 z2 |!pp! A,8 | G,8 | F,8 | E,8 |!mp!!<(! A,2 A,4 A,2!<)! | ^G,4 ^F,4 | %24
w: larms its|walls a-|way;|Nor|try|to|tie,|Nor climb the|bars of|
!>(! !>!E,2 E,4 E,2!>)! | z8 ||[M:5/4] z10 ||[M:3/4] z6 |!mf! C2 _B,2 _A,2 | %29
w: ec- sta- sy,||||In in- se-|
[M:5/4] G,4 _A,2 G,2 ^F,2 ||[M:3/4] G,4 z2 | z4 F,2 | D,6 |!>(! D,2 _E,2 ^F,2 || %34
w: cu- ri- ty to|lie,|Is|Joy's|in- sur- ing|
[M:4/4] G,3 G,!>)!"^Completed 7th May 2000"!p! G,4 |] %35
w: qua- li\- ty.|

